X: 1
T: Sk\ojtel\oberdans (Skaters' Shottish)
N: See also Hejsan Grabbar
C: Trad
O: Denmark
B: Danske Folkedansemelodier #451
R: shottish
M: 4/4
L: 1/8
K: G
|: "G"D>G B>A G2 G2 | G>B dc B4 | "D7"A>B c>A F>D E>F |1,3 "G"G>F G>E D4 :|2,4 "G"G2 G2 G2 z2  |
|: "C"e2 c2 e2 c2 | "G"d>B G>B d4 | "D7"c>B A>G F>D E>F |1,3 "G"G>F G>B d4 :|2,4 "G"G2 G2 G2 z2 |]
